docs/.vuepress/public/assets/logomark-color.svg

<svg id="prefect-color-logo" xmlns="http://www.w3.org/2000/svg" xmlns:xlink="http://www.w3.org/1999/xlink" viewBox="0 0 464 745" aria-labelledby="color-logo-title color-logo-desc" role="img">
    <title>Prefect</title>
    <desc>Full color logo</desc>
    <defs>
        <linearGradient id="b" x1="85.3333333%" x2="14.4819849%" y1="85.332966%" y2="13.5089653%">
            <stop offset="0%" stop-color="#B4C0C9"/>
            <stop offset="97.2376%" stop-color="#94A5B2"/>
        </linearGradient>
        <path id="a" d="M232.25 115.966L.5.006v235.91z"/>
        <linearGradient id="d" x1="9.33332344%" x2="139.354775%" y1="10.6666448%" y2="37.5379955%">
            <stop offset="0%" stop-color="#647989"/>
            <stop offset="100%" stop-color="#2F383E"/>
        </linearGradient>
        <linearGradient id="e" x1="25.68884%" x2="84.1224849%" y1="17.5373656%" y2="88.8850663%">
            <stop offset="0%" stop-color="#2EDAFF"/>
            <stop offset="100%" stop-color="#3B8DFF"/>
        </linearGradient>
  </defs>
  <g fill="none" fill-rule="evenodd">
    <g transform="translate(231 231)">
      <mask id="c" fill="#fff">
        <use xlink:href="#a"/>
      </mask>
      <use fill="url(#b)" xlink:href="#a"/>
      <path fill="#0D3958" fill-opacity=".2" d="M30 220.646L.5 45.166v190.75zM202.5 101.085L.5.006v25.66z" mask="url(#c)"/>
    </g>
    <path fill="url(#d)" d="M14 742.37c.5-.26 212.755-103.17 213-103.3 2.934-1.65 4.535-2.18 4.6-7.4.006-.5-.1-400.655-.1-400.655C141.595 276.026 15 339.166 4 345.016c-3.5 1.861-4 3.65-4 6.15V732.17c0 8.5.5 17 14 10.2z"/>
    <path fill="url(#e)" d="M463.25 119.997v226.969S31 130.79 16 122.916c-10-5.25-10-10.25 0-15.75 9.233-5.078 184.558-92.559 211.5-106 3.5-1.5 4.5-1.5 7.575-.3l223.775 112.05c3.15 1.75 4.15 3.25 4.4 7.081z"/>
  </g>
</svg>

<?xml version="1.0" encoding="UTF-8"?>
<svg width="464px" height="745px" viewBox="0 0 464 745" version="1.1" xmlns="http://www.w3.org/2000/svg" xmlns:xlink="http://www.w3.org/1999/xlink">
    <!-- Generator: Sketch 52.5 (67469) - http://www.bohemiancoding.com/sketch -->
    <title>logomark/primary-color</title>
    <desc>Created with Sketch.</desc>
    <defs>
        <linearGradient x1="85.3333333%" y1="85.332966%" x2="14.4819849%" y2="13.5089653%" id="linearGradient-1">
            <stop stop-color="#B4C0C9" offset="0%"></stop>
            <stop stop-color="#94A5B2" offset="97.2376%"></stop>
        </linearGradient>
        <polygon id="path-2" points="232.25 115.966 0.5 0.006 0.5 235.916"></polygon>
        <linearGradient x1="9.33332344%" y1="10.6666448%" x2="139.354775%" y2="37.5379955%" id="linearGradient-4">
            <stop stop-color="#647989" offset="0%"></stop>
            <stop stop-color="#2F383E" offset="100%"></stop>
        </linearGradient>
        <linearGradient x1="25.68884%" y1="17.5373656%" x2="84.1224849%" y2="88.8850663%" id="linearGradient-5">
            <stop stop-color="#2EDAFF" offset="0%"></stop>
            <stop stop-color="#3B8DFF" offset="100%"></stop>
        </linearGradient>
    </defs>
    <g id="logomark/primary-color" stroke="none" stroke-width="1" fill="none" fill-rule="evenodd">
        <g id="Prefect-Blue">
            <g id="middle-triangle" transform="translate(231.000000, 231.000000)">
                <mask id="mask-3" fill="white">
                    <use xlink:href="#path-2"></use>
                </mask>
                <use id="triangle" fill="url(#linearGradient-1)" xlink:href="#path-2"></use>
                <polygon id="left-shadow" fill-opacity="0.2" fill="#0D3958" mask="url(#mask-3)" points="30 220.646 0.5 45.166 0.5 235.916"></polygon>
                <polygon id="right-shadow" fill-opacity="0.2" fill="#0D3958" mask="url(#mask-3)" points="202.5 101.085 0.5 0.006 0.5 25.666"></polygon>
            </g>
            <path d="M14,742.37 C14.5,742.11 226.755,639.2 227,639.07 C229.934,637.42 231.535,636.89 231.6,631.67 C231.606,631.17 231.5,231.015 231.5,231.015 C141.595,276.026 15,339.166 4,345.016 C0.5,346.877 2.84217094e-14,348.666 2.84217094e-14,351.166 L2.84217094e-14,732.17 C2.84217094e-14,740.67 0.5,749.17 14,742.37 Z" id="leg" fill="url(#linearGradient-4)"></path>
            <path d="M463.25,119.997 L463.25,346.966 C463.25,346.966 31,130.79 16,122.916 C6,117.666 6,112.666 16,107.166 C25.233,102.088 200.558,14.607 227.5,1.166 C231,-0.334 232,-0.334 235.075,0.866 L458.85,112.916 C462,114.666 463,116.166 463.25,119.997 Z" id="top" fill="url(#linearGradient-5)"></path>
        </g>
    </g>
</svg>
